packages/calcite-ui-icons/icons/camera-sensor-layer-32.svg

<?xml version="1.0" encoding="UTF-8"?><svg id="icons" xmlns="http://www.w3.org/2000/svg" viewBox="0 0 32 32"><defs><style>.cls-1{fill:none;}.cls-2{fill:#231f20;}</style></defs><rect class="cls-1" width="32" height="32"/><path class="cls-2" d="M8.5376,28.7998c2.35742,0,3.98944-.31573,5.4624-.73114v1.03619c-1.46356.39453-3.13306.69513-5.46222.69513-4.44446,0-7.53778-1.79999-7.53778-1.79999L5,3.89996c.69922.23309,2.5188.96826,5.33917.96826,4.80804,0,5.59076-1.6571,10.73492-1.6571,3.25922,0,5.9259.68884,5.9259.68884l1.84235,11.10004h-1.01349l-1.70483-10.27148c-.9458-.19287-2.8623-.51758-5.0498-.51758-2.47461,0-3.84229.39355-5.29004.81055-1.44531.4165-2.94043.84668-5.44482.84668-2.00537,0-3.52783-.3457-4.54443-.65088l-3.6875,22.2168c1.06055.47949,3.42725,1.36572,6.43018,1.36572ZM31,20.67871v4.64258c0,.37482-.30383.67871-.67871.67871h-.32129v3l-2,2h-11l-2-2v-3h-.32129c-.37488,0-.67871-.30389-.67871-.67871v-4.64258c0-.37488.30383-.67871.67871-.67871h.32129v-2l2-2h1v-1h3.99609v1h6.00391l2,2v2h.32129c.37488,0,.67871.30383.67871.67871ZM29,18.41406l-1.41406-1.41406h-10.17188l-1.41406,1.41406v10.17188l1.41406,1.41406h10.17188l1.41406-1.41406v-10.17188ZM27,23.5c0,2.48541-2.01459,4.5-4.5,4.5s-4.5-2.01459-4.5-4.5,2.01459-4.5,4.5-4.5,4.5,2.01459,4.5,4.5ZM26,23.5c0-1.93005-1.57001-3.5-3.5-3.5s-3.5,1.56995-3.5,3.5,1.57001,3.5,3.5,3.5,3.5-1.57001,3.5-3.5ZM19,18h-2v1h2v-1ZM17,29h1v-1h-1v1ZM20,23.5c0,.17126.01764.33838.05054.5h1.04156c-.05603-.15717-.0921-.32385-.0921-.5,0-.82715.67285-1.5,1.5-1.5.17615,0,.34283.03607.5.0921v-1.04156c-.16162-.0329-.32874-.05054-.5-.05054-1.37891,0-2.5,1.12109-2.5,2.5Z"/></svg>

<svg xmlns="http://www.w3.org/2000/svg" viewBox="0 0 32 32"><path d="M0 0h32v32H0z" style="fill:none"/><path d="M8.538 28.8c2.357 0 3.989-.316 5.462-.731v1.036c-1.464.394-3.133.695-5.462.695C4.093 29.8 1 28 1 28L5 3.9c.7.233 2.519.968 5.34.968 4.807 0 5.59-1.657 10.734-1.657 3.26 0 5.926.689 5.926.689L28.842 15H27.83L26.124 4.729a26 26 0 0 0-5.05-.518c-2.474 0-3.842.393-5.29.81-1.445.417-2.94.847-5.445.847a15.6 15.6 0 0 1-4.544-.65L2.107 27.433a16 16 0 0 0 6.43 1.366M31 20.679v4.642a.68.68 0 0 1-.679.679H30v3l-2 2H17l-2-2v-3h-.321a.68.68 0 0 1-.679-.679V20.68c0-.375.304-.679.679-.679H15v-2l2-2h1v-1h3.996v1H28l2 2v2h.321c.375 0 .679.304.679.679m-2-2.265L27.586 17H17.414L16 18.414v10.172L17.414 30h10.172L29 28.586zM27 23.5a4.5 4.5 0 1 1-9 0 4.5 4.5 0 0 1 9 0m-1 0c0-1.93-1.57-3.5-3.5-3.5S19 21.57 19 23.5s1.57 3.5 3.5 3.5 3.5-1.57 3.5-3.5M19 18h-2v1h2zm-2 11h1v-1h-1zm3-5.5q.001.257.05.5h1.042a1.5 1.5 0 0 1-.092-.5c0-.827.673-1.5 1.5-1.5.176 0 .343.036.5.092v-1.041a2.502 2.502 0 0 0-3 2.45" style="fill:#231f20"/></svg>
